lib/healthicons/icons/outline/people/group_discussion_meeting.svg

<svg fill="none" height="48" viewBox="0 0 48 48" width="48" xmlns="http://www.w3.org/2000/svg"><path clip-rule="evenodd" d="m15.2 16.0833h-3.1583c-2.23218 0-4.0417-1.8095-4.0417-4.0416 0-2.23218 1.80952-4.0417 4.0417-4.0417h5.9166c2.2322 0 4.0417 1.80952 4.0417 4.0417 0 2.5829-1.8078 4.3033-4.2688 5.4902-.8722.4206-1.756.7351-2.5312.9647zm-2 4.9167s.8163-.1102 2-.4259c3.122-.8326 8.8-3.0943 8.8-8.5324 0-3.33675-2.7049-6.0417-6.0417-6.0417h-5.9166c-3.33675 0-6.0417 2.70495-6.0417 6.0417 0 3.3367 2.70495 6.0416 6.0417 6.0416h1.1583zm3.3 7c0 1.1054-.8946 2-2 2s-2-.8946-2-2 .8946-2 2-2 2 .8946 2 2zm-2 4c2.21 0 4-1.79 4-4s-1.79-4-4-4-4 1.79-4 4 1.79 4 4 4zm-6.5 8v-1.7333c-.00002-.009-.00007-.03.02596-.0804.0318-.0616.10536-.1706.26255-.3162.32935-.3052.88124-.6385 1.64391-.9452 1.52888-.6149 3.40018-.9249 4.56758-.9249s3.0387.31 4.5676.9249c.7626.3067 1.3145.64 1.6439.9452.1572.1456.2307.2546.2625.3162.0261.0504.026.0714.026.0804v1.7333zm-2-1.7333c0-2.8374 5.6631-4.2667 8.5-4.2667s8.5 1.4293 8.5 4.2667v3.7333h-17zm27.5-8.2667c1.1054 0 2-.8946 2-2s-.8946-2-2-2-2 .8946-2 2 .8946 2 2 2zm4-2c0 2.21-1.79 4-4 4s-4-1.79-4-4 1.79-4 4-4 4 1.79 4 4zm-10.5 12v-1.7333c0-.009-.0001-.03.026-.0804.0318-.0616.1053-.1706.2625-.3162.3294-.3052.8813-.6385 1.6439-.9452 1.5289-.6149 3.4002-.9249 4.5676-.9249s3.0387.31 4.5676.9249c.7626.3067 1.3145.64 1.6439.9452.1572.1456.2307.2546.2625.3162.0261.0504.026.0714.026.0804v1.7333zm-2-1.7333c0-2.8374 5.6631-4.2667 8.5-4.2667s8.5 1.4293 8.5 4.2667v3.7333h-17zm10.9583-21.1834h-2.3583v2.3124c-.5828-.2101-1.2182-.4796-1.8463-.8203-2.0827-1.13-3.7537-2.8266-3.7537-5.5337 0-2.2322 1.8095-4.0417 4.0417-4.0417h3.9166c2.2322 0 4.0417 1.8095 4.0417 4.0417 0 2.2321-1.8095 4.0416-4.0417 4.0416zm-2.3583 4.4225c1.1709.3683 2 .4942 2 .4942v-2.9167h.3583c3.3368 0 6.0417-2.7049 6.0417-6.0416 0-3.33675-2.7049-6.0417-6.0417-6.0417h-3.9166c-3.3368 0-6.0417 2.70495-6.0417 6.0417 0 5.2959 4.7866 7.5794 7.6 8.4641z" fill="#333" fill-rule="evenodd"/></svg>

<svg width="48" height="48" viewBox="0 0 48 48" fill="none" xmlns="http://www.w3.org/2000/svg">
<path fill-rule="evenodd" clip-rule="evenodd" d="M13.2 21C13.2 21 14.0163 20.8898 15.2 20.5741C18.322 19.7415 24 17.4798 24 12.0417C24 8.70495 21.2951 6 17.9583 6H12.0417C8.70495 6 6 8.70495 6 12.0417C6 15.3784 8.70495 18.0833 12.0417 18.0833H13.2V21ZM15.2 16.0833H12.0417C9.80952 16.0833 8 14.2738 8 12.0417C8 9.80952 9.80952 8 12.0417 8H17.9583C20.1905 8 22 9.80952 22 12.0417C22 14.6246 20.1922 16.345 17.7312 17.5319C16.859 17.9525 15.9752 18.267 15.2 18.4966V16.0833Z" fill="#333333"/>
<path fill-rule="evenodd" clip-rule="evenodd" d="M14.5 32C16.71 32 18.5 30.21 18.5 28C18.5 25.79 16.71 24 14.5 24C12.29 24 10.5 25.79 10.5 28C10.5 30.21 12.29 32 14.5 32ZM16.5 28C16.5 29.1054 15.6054 30 14.5 30C13.3946 30 12.5 29.1054 12.5 28C12.5 26.8946 13.3946 26 14.5 26C15.6054 26 16.5 26.8946 16.5 28Z" fill="#333333"/>
<path fill-rule="evenodd" clip-rule="evenodd" d="M6 38.2667C6 35.4293 11.6631 34 14.5 34C17.3369 34 23 35.4293 23 38.2667V42H6V38.2667ZM8 40V38.2667C7.99998 38.2577 7.99993 38.2367 8.02596 38.1863C8.05776 38.1247 8.13132 38.0157 8.28851 37.8701C8.61786 37.5649 9.16975 37.2316 9.93242 36.9249C11.4613 36.31 13.3326 36 14.5 36C15.6674 36 17.5387 36.31 19.0676 36.9249C19.8302 37.2316 20.3821 37.5649 20.7115 37.8701C20.8687 38.0157 20.9422 38.1247 20.974 38.1863C21.0001 38.2367 21 38.2577 21 38.2667V40H8Z" fill="#333333"/>
<path fill-rule="evenodd" clip-rule="evenodd" d="M37.5 28C37.5 30.21 35.71 32 33.5 32C31.29 32 29.5 30.21 29.5 28C29.5 25.79 31.29 24 33.5 24C35.71 24 37.5 25.79 37.5 28ZM33.5 30C34.6054 30 35.5 29.1054 35.5 28C35.5 26.8946 34.6054 26 33.5 26C32.3946 26 31.5 26.8946 31.5 28C31.5 29.1054 32.3946 30 33.5 30Z" fill="#333333"/>
<path fill-rule="evenodd" clip-rule="evenodd" d="M25 38.2667C25 35.4293 30.6631 34 33.5 34C36.3369 34 42 35.4293 42 38.2667V42H25V38.2667ZM27 40V38.2667C27 38.2577 26.9999 38.2367 27.026 38.1863C27.0578 38.1247 27.1313 38.0157 27.2885 37.8701C27.6179 37.5649 28.1698 37.2316 28.9324 36.9249C30.4613 36.31 32.3326 36 33.5 36C34.6674 36 36.5387 36.31 38.0676 36.9249C38.8302 37.2316 39.3821 37.5649 39.7115 37.8701C39.8687 38.0157 39.9422 38.1247 39.974 38.1863C40.0001 38.2367 40 38.2577 40 38.2667V40H27Z" fill="#333333"/>
<path fill-rule="evenodd" clip-rule="evenodd" d="M33.6 21.5058C34.7709 21.8741 35.6 22 35.6 22V19.0833H35.9583C39.2951 19.0833 42 16.3784 42 13.0417C42 9.70495 39.2951 7 35.9583 7H32.0417C28.7049 7 26 9.70495 26 13.0417C26 18.3376 30.7866 20.6211 33.6 21.5058ZM35.9583 17.0833H33.6V19.3957C33.0172 19.1856 32.3818 18.9161 31.7537 18.5754C29.671 17.4454 28 15.7488 28 13.0417C28 10.8095 29.8095 9 32.0417 9H35.9583C38.1905 9 40 10.8095 40 13.0417C40 15.2738 38.1905 17.0833 35.9583 17.0833Z" fill="#333333"/>
</svg>
